wp-content/uploads/2023/09/Star-1.svg

<?xml version="1.0" encoding="UTF-8"?>
<svg xmlns="http://www.w3.org/2000/svg" width="32" height="32" viewBox="0 0 32 32" fill="none">
  <path id="Star 1" d="M16 0L17.7375 6.97584C18.6316 10.5656 21.4344 13.3684 25.0242 14.2625L32 16L25.0242 17.7375C21.4344 18.6316 18.6316 21.4344 17.7375 25.0242L16 32L14.2625 25.0242C13.3684 21.4344 10.5656 18.6316 6.97584 17.7375L0 16L6.97584 14.2625C10.5656 13.3684 13.3684 10.5656 14.2625 6.97584L16 0Z" fill="white"></path>
</svg>

<svg xmlns="http://www.w3.org/2000/svg" width="32" height="32" fill="none"><path d="m16 0 1.738 6.976a10 10 0 0 0 7.286 7.286L32 16l-6.976 1.738a10 10 0 0 0-7.287 7.286L16 32l-1.738-6.976a10 10 0 0 0-7.286-7.287L0 16l6.976-1.738a10 10 0 0 0 7.286-7.286L16 0Z" fill="#fff"/></svg>
